!!!COM: Palestrina, Giovanni Perluigi da
!!!OPR: In duplicibus minoribus (I)
!!!OTL: Credo
**kern	**kern	**kern	**kern	**kern
*Ibass	*Itenor	*Itenor	*Icalto	*Icant
!Bassus	!Tenor 2	!Tenor 1	!Altus	!Cantus
*clefF4	*clefGv2	*clefGv2	*clefG2	*clefG2
*k[]	*k[]	*k[]	*k[]	*k[]
*E:phr	*E:phr	*E:phr	*E:phr	*E:phr
*M4/2	*M4/2	*M4/2	*M4/2	*M4/2
=1	=1	=1	=1	=1
0r	0r	0r	1B	0r
.	.	.	2d	.
.	.	.	2d	.
=2	=2	=2	=2	=2
1E	0r	0r	1e	0r
2G	.	.	2B	.
2G	.	.	[2d	.
=3	=3	=3	=3	=3
1A	1r	0r	4d]	1e
.	.	.	4c	.
.	.	.	2c	.
1E	1e	.	1B	2g
.	.	.	.	2g
=4	=4	=4	=4	=4
1.A	2c	0r	1A	1a
.	2c	.	.	.
.	1B	.	2r	1e
2G	.	.	2B	.
=5	=5	=5	=5	=5
1.F	2.A	2r	2c	1.a
.	.	2A	2c	.
.	4G	.	.	.
.	2F	2c	2A	.
2E	2G	2c	2e	2g
=6	=6	=6	=6	=6
0D	2A	1d	2r	0f
.	2.d	.	2A	.
.	.	2A	2.d	.
.	4c	.	.	.
.	4B	[2d	.	.
.	4A	.	4c	.
=7	=7	=7	=7	=7
0E	2G	2d]	2B	1e
.	1A	2c	2A	.
.	.	1B	2B	2r
.	2G#	.	2E	[2e
=8	=8	=8	=8	=8
0r	1A	2c	2r	2e]
.	.	2A	2c	2f
.	1r	2B	2d	2.g
.	.	[2c	[2e	.
.	.	.	.	4g
=9	=9	=9	=9	=9
0r	0r	4c]	4e]	2a
.	.	4c	4e	.
.	.	2B	2d	1g
.	.	2c	2e	.
.	.	2d	2d	2f
=10	=10	=10	=10	=10
1r	2r	1A	4c	0e
.	.	.	4d	.
.	2A	.	4e	.
.	.	.	4f	.
1E	2B	2r	1g	.
.	[2c	2G	.	.
=11	=11	=11	=11	=11
2F	4c]	2A	0r	0r
.	4c	.	.	.
2.G	2e	2.B	.	.
.	2d	.	.	.
4G	.	4B	.	.
2A	2c	2c	.	.
=12	=12	=12	=12	=12
2G	2B	2d	0r	1r
2F	1A	2d	.	.
1E	.	[1e	.	1b
.	2G#	.	.	.
=13	=13	=13	=13	=13
0r	1A	1e]	2r	1cc
.	.	.	1e	.
.	2r	1r	.	2b
.	[2A	.	2f	2a
=14	=14	=14	=14	=14
0r	2A]	0r	2e	2cc
.	2B	.	2d	2dd
.	2A	.	2e	4cc
.	.	.	.	4b
.	2D	.	[2f	4a
.	.	.	.	4g
=15	=15	=15	=15	=15
0r	2F	1r	2f]	2.a
.	2C	.	1e	.
.	.	.	.	4g
.	1D	1A	.	1f
.	.	.	2d	.
=16	=16	=16	=16	=16
1r	2r	1c	0e	1e
.	1A	.	.	.
1E	.	1B	.	2r
.	2G	.	.	2e
=17	=17	=17	=17	=17
1F	2c	1A	0r	2a
.	2d	.	.	2a
2E	2e	4B	.	2g
.	.	4c	.	.
2D	[2A	4d	.	[2f
.	.	4A	.	.
=18	=18	=18	=18	=18
1E	4A]	2c	0r	4f]
.	4G#	.	.	4e
.	2G#	2.B	.	1e
2.F	1A	.	.	.
.	.	4A	.	.
.	.	[2A	.	2d
4F	.	.	.	.
=19	=19	=19	=19	=19
1E	2r	2A]	1B	[0e
.	2E	2G#	.	.
2r	4A	1A	1c	.
.	4B	.	.	.
2A	4c	.	.	.
.	4d	.	.	.
=20	=20	=20	=20	=20
2G#	2e	2E	2B	1e_
2A	2c	2A	2A	.
1E	2B	2G#	1B	1e_
.	[2e	2G#	.	.
=21	=21	=21	=21	=21
1.AA	4e]	1A	1.c	0e]
.	4d	.	.	.
.	4c	.	.	.
.	4B	.	.	.
.	2A	1E	.	.
2AA	2A	.	2c	.
=22	=22	=22	=22	=22
[0E	[0G#	[0E	[0B	[0e
=23	=23	=23	=23	=23
0E]	0G#]	0E]	0B]	0e]
!! Et ex Patre
*Ibass	*Itenor	*Itenor	*Icalto	*Icant
!Bassus	!Tenor 2	!Tenor 1	!Altus	!Cantus
*clefF4	*clefGv2	*clefGv2	*clefG2	*clefG2
*k[]	*k[]	*k[]	*k[]	*k[]
*E:phr	*E:phr	*E:phr	*E:phr	*E:phr
*M4/2	*M4/2	*M4/2	*M4/2	*M4/2
=24	=24	=24	=24	=24
1E	0r	0r	1r	1e
1G	.	.	1B	1d
=25	=25	=25	=25	=25
2F	0r	0r	1A	1f
2D	.	.	.	.
1A	.	.	1c	1e
=26	=26	=26	=26	=26
2G	0r	1r	1B	1g
4F	.	.	.	.
4E	.	.	.	.
1F	.	1A	1d	1a
=27	=27	=27	=27	=27
1C	1r	1c	1e	2r
.	.	.	.	2e
1r	1E	2B	2r	1g
.	.	2G	2B	.
=28	=28	=28	=28	=28
0r	1D	2B	1d	2f
.	.	2.A	.	2d
.	1F	.	2c	1a
.	.	4B	.	.
.	.	[2c	2A	.
=29	=29	=29	=29	=29
0r	1E	2c]	1e	0g
.	.	4B	.	.
.	.	4A	.	.
.	1G	1B	1d	.
=30	=30	=30	=30	=30
0r	2A	1c	2r	1e
.	2A	.	2c	.
.	2B	2r	2d	2g
.	[2c	2A	[2e	[2a
=31	=31	=31	=31	=31
0r	2c]	2c	2e]	2a]
.	2B	1d	2d	2g
.	1A	.	2a	2f
.	.	2c	2A	[2e
=32	=32	=32	=32	=32
1r	2G	2B	4B	2e]
.	.	.	4c	.
.	2F	1A	4d	2d
.	.	.	4A	.
2r	1E	.	2c	1e
2E	.	4G	2B	.
.	.	4A	.	.
=33	=33	=33	=33	=33
2G	2r	4B	1e	0r
.	.	8A	.	.
.	.	8B	.	.
1A	2A	1c	.	.
.	2c	.	1r	.
2G	[2d	2B	.	.
=34	=34	=34	=34	=34
2F	2d]	2A	0r	1r
2.E	2c	2.G	.	.
.	2B	.	.	2r
4D	.	4F	.	.
2C	[2A	2E	.	2a
=35	=35	=35	=35	=35
2BB	2A]	1D	0r	2b
2BB	2G#	.	.	1dd
4AA	1A	2E	.	.
4BB	.	.	.	.
4C	.	[2A	.	2cc
4D	.	.	.	.
=36	=36	=36	=36	=36
1E	2r	2A]	1B	1b
.	2E	2G#	.	.
1r	2F	2A	2d	2a
.	2G	2B	[2e	4g
.	.	.	.	8f
.	.	.	.	8e
=37	=37	=37	=37	=37
0r	2A	2c	2e]	1f
.	2D	1B	2d	.
.	[1E	.	1c	1e
.	.	[2A	.	.
=38	=38	=38	=38	=38
1E	1E]	4A]	1B	[0e
.	.	4G#	.	.
.	.	4G#	.	.
.	.	8A	.	.
.	.	8B	.	.
1AA	1E	4c	1A	.
.	.	4B	.	.
.	.	[2A	.	.
=39	=39	=39	=39	=39
[0E	[0E	2A]	[0B	0e]
.	.	2G#	.	.
.	.	1G#	.	.
=40	=40	=40	=40	=40
1E_	1E_	[0G#	1B_	[0e
1E_	1E_	.	1B_	.
=41	=41	=41	=41	=41
0E]	0E]	0G#]	0B]	0e]
!! Genitum
*Ibass	*Itenor	*Itenor	*Icalto	*Icant
!Bassus	!Tenor 2	!Tenor 1	!Altus	!Cantus
*clefF4	*clefGv2	*clefGv2	*clefG2	*clefG2
*k[]	*k[]	*k[]	*k[]	*k[]
*E:phr	*E:phr	*E:phr	*E:phr	*E:phr
*M4/2	*M4/2	*M4/2	*M4/2	*M4/2
=42	=42	=42	=42	=42
1.E	0r	1r	0r	0r
.	.	[1B	.	.
2D	.	.	.	.
=43	=43	=43	=43	=43
2E	0r	2B]	1r	0r
2F	.	2A	.	.
2.E	.	2B	[1e	.
.	.	2c	.	.
4D	.	.	.	.
=44	=44	=44	=44	=44
4E	0r	2.B	2e]	0r
4F	.	.	.	.
1G	.	.	2d	.
.	.	4A	.	.
.	.	4B	2e	.
.	.	4c	.	.
2F	.	[2d	2f	.
=45	=45	=45	=45	=45
1A	0r	2d]	2.e	0r
.	.	1c	.	.
.	.	.	8d	.
.	.	.	8c	.
1G	.	.	1d	.
.	.	2B	.	.
=46	=46	=46	=46	=46
1A	2r	1c	2c	1r
.	1c	.	1A	.
[1AA	.	1r	.	[1e
.	2c	.	2A	.
=47	=47	=47	=47	=47
1AA]	2A	0r	2c	2e]
.	2A	.	2c	2e
1r	2.G	.	2d	2g
.	.	.	2e	2g
.	8F	.	.	.
.	8E	.	.	.
=48	=48	=48	=48	=48
0r	2D	1.A	2f	2a
.	2C	.	1e	2e
.	1D	.	.	1f
.	.	2A	2d	.
=49	=49	=49	=49	=49
0r	1A	2c	2e	2.e
.	.	2c	2A	.
.	.	.	.	4f
.	2G	2d	2B	2g
.	2F	2A	4c	[2a
.	.	.	4d	.
=50	=50	=50	=50	=50
1r	1E	1B	1e	2a]
.	.	.	.	2g#
2r	2r	1A	1e	2.a
[2A	[2c	.	.	.
.	.	.	.	8g
.	.	.	.	8f
=51	=51	=51	=51	=51
2A]	2c]	1r	0r	0e
2G	2B	.	.	.
1A	1c	2r	.	.
.	.	[2e	.	.
=52	=52	=52	=52	=52
2G	2B	2e]	0r	2r
2F	2A	2d	.	1a
1E	2B	1e	.	.
.	2B	.	.	2g
=53	=53	=53	=53	=53
1F	1A	2d	1r	1a
.	.	2c	.	.
2G	1r	2B	1d	2g
2D	.	2A	.	2f
=54	=54	=54	=54	=54
2.E	0r	4G	1g	1e
.	.	8A	.	.
.	.	8B	.	.
.	.	1c	.	.
4F	.	.	.	.
1G	.	.	2.g	1d
.	.	2B	.	.
.	.	.	4g	.
=55	=55	=55	=55	=55
2.C	2r	1c	1g	1e
.	1e	.	.	.
4D	.	.	.	.
2E	.	2B	2r	1r
2F	2d	2A	[2a	.
=56	=56	=56	=56	=56
1E	1e	1B	2a]	0r
.	.	.	2g	.
1F	2d	1A	1a	.
.	2c	.	.	.
=57	=57	=57	=57	=57
2G	2B	0r	2g	2r
1D	2A	.	1f	1a
.	1B	.	.	.
2E	.	.	[2e	2g
=58	=58	=58	=58	=58
1F	1A	2r	4e]	2.a
.	.	.	4d	.
.	.	1A	4d	.
.	.	.	8c	4b
.	.	.	8d	.
1E	2r	.	[1e	2cc
.	2B	2G	.	2b
=59	=59	=59	=59	=59
0AA	2.c	2.A	1e]	2a
.	.	.	.	1a
.	4B	4B	.	.
.	1A	1c	1e	.
.	.	.	.	2a
=60	=60	=60	=60	=60
[0E	[0G#	[0B	[0e	[0b
=61	=61	=61	=61	=61
0E]	0G#]	0B]	0e]	0b]
!! Et incarnatus
*Ibass	*Itenor	*Itenor	*Icalto	*Icant
!Bassus	!Tenor 2	!Tenor 1	!Altus	!Cantus
*clefF4	*clefGv2	*clefGv2	*clefG2	*clefG2
*k[]	*k[]	*k[]	*k[]	*k[]
*E:phr	*E:phr	*E:phr	*E:phr	*E:phr
*M4/2	*M4/2	*M4/2	*M4/2	*M4/2
=62	=62	=62	=62	=62
0r	0r	0r	1e	1r
.	.	.	1d	1a
=63	=63	=63	=63	=63
0r	0r	0r	1e	1g
.	.	.	2d	1a
.	.	.	2c	.
=64	=64	=64	=64	=64
0r	0r	1r	4B	2g
.	.	.	4c	.
.	.	.	1d	2f
.	.	1A	.	2.e
.	.	.	2c	.
.	.	.	.	4f
=65	=65	=65	=65	=65
0r	1d	1G	1B	4g
.	.	.	.	4a
.	.	.	.	2b
.	1c	1A	2r	4a
.	.	.	.	4b
.	.	.	2e	4cc
.	.	.	.	4a
=66	=66	=66	=66	=66
1r	1d	2G	2g	2b
.	.	2F	2d	1a
1E	2c	1E	2.e	.
.	2B	.	.	2g#
.	.	.	4d	.
=67	=67	=67	=67	=67
1.A	1A	2r	4c	1a
.	.	.	4B	.
.	.	2A	1c	.
.	1r	1e	.	2r
2G	.	.	2B	[2e
=68	=68	=68	=68	=68
1A	2r	2c	1e	2e]
.	2A	2c	.	1a
1B	[1d	1d	1r	.
.	.	.	.	2g
=69	=69	=69	=69	=69
1A	2d]	1e	2r	1a
.	2c	.	1a	.
1r	2d	1r	.	1b
.	2e	.	2g	.
=70	=70	=70	=70	=70
2r	1A	0r	2f	1a
1A	.	.	2e	.
.	2r	.	2f	1r
2G	[2e	.	2g	.
=71	=71	=71	=71	=71
1F	2e]	2r	1a	0r
.	2d	1A	.	.
1E	2c	.	1r	.
.	2B	2G	.	.
=72	=72	=72	=72	=72
1AA	2c	2F	1r	1.a
.	2c	2E	.	.
2D	1d	2F	2r	.
2BB	.	2G	[2d	2g
=73	=73	=73	=73	=73
1AA	0r	1A	4d]	2f
.	.	.	8c	.
.	.	.	8B	.
.	.	.	2c	2e
2D	.	1r	2d	2f
2E	.	.	2B	2g
=74	=74	=74	=74	=74
2.F	2r	0r	1A	[0a
.	2A	.	.	.
4G	.	.	.	.
1A	2.c	.	2r	.
.	.	.	2A	.
.	4d	.	.	.
=75	=75	=75	=75	=75
0r	1e	1A	2.c	0a]
.	.	.	4d	.
.	2c	1A	2e	.
.	[2d	.	[2f	.
=76	=76	=76	=76	=76
0r	4d]	1A	2f]	0r
.	8c	.	.	.
.	8B	.	.	.
.	1c	.	1e	.
.	.	1G	.	.
.	2B	.	4d	.
.	.	.	4c	.
=77	=77	=77	=77	=77
1r	2A	1F	2d	1a
.	2A	.	2d	.
1AA	2.c	1E	[1e	1a
.	4d	.	.	.
=78	=78	=78	=78	=78
2C	2e	1r	2e]	1a
2D	1f	.	4d	.
.	.	.	4c	.
2E	.	2r	2B	1g
2C	[2e	2E	2c	.
=79	=79	=79	=79	=79
0D	2e]	2.F	1.A	0f
.	4d	.	.	.
.	4c	4G	.	.
.	2d	[1A	.	.
.	2d	.	2A	.
=80	=80	=80	=80	=80
1AA	4e	1A]	1c	[0e
.	4d	.	.	.
.	4c	.	.	.
.	4B	.	.	.
1AA	1A	1E	1c	.
=81	=81	=81	=81	=81
[0E	[0G#	[0E	[0B	1e_
.	.	.	.	1e_
=82	=82	=82	=82	=82
0E]	0G#]	0E]	0B]	0e]
*	*	*	*	*-
!! Et resurrexit
*Itenor	*Itenor	*Icalto	*Icant
!Tenor 2	!Tenor 1	!Altus	!Cantus
*clefGv2	*clefGv2	*clefG2	*clefG2
*k[]	*k[]	*k[]	*k[]
*E:phr	*E:phr	*E:phr	*E:phr
*M4/2	*M4/2	*M4/2	*M4/2
=83	=83	=83	=83
0r	0r	1e	0r
.	.	2d	.
.	.	2e	.
=84	=84	=84	=84
0r	1A	1c	0r
.	2G	2B	.
.	2A	[2e	.
=85	=85	=85	=85
0r	1F	2e]	0r
.	.	2d	.
.	2E	4g	.
.	.	4f	.
.	[2A	4e	.
.	.	4d	.
=86	=86	=86	=86
1r	2A]	2c	0r
.	2G	2B	.
1e	4c	2A	.
.	4B	.	.
.	4A	[2A	.
.	4G	.	.
=87	=87	=87	=87
2d	2F	2A]	0r
2e	2E	2G	.
1c	1F	4A	.
.	.	4B	.
.	.	4c	.
.	.	4A	.
=88	=88	=88	=88
2B	1D	2.d	0r
1A	.	.	.
.	.	4c	.
.	1E	1B	.
2G	.	.	.
=89	=89	=89	=89
4F	0r	4A	1a
4G	.	4B	.
4A	.	4c	.
4B	.	4d	.
4c	.	4e	2g
4d	.	4d	.
[2e	.	4c	2a
.	.	8B	.
.	.	8c	.
=90	=90	=90	=90
4e]	1r	1d	1f
4d	.	.	.
2.d	.	.	.
.	2r	1A	[1e
4c	.	.	.
2c	[2A	.	.
=91	=91	=91	=91
1B	2A]	1E	1e]
.	2G	.	.
1A	4c	1e	2r
.	4B	.	.
.	4A	.	[2a
.	4G	.	.
=92	=92	=92	=92
0r	2F	2d	2a]
.	2E	2e	2g
.	2A	1c	4cc
.	.	.	4b
.	[2F	.	4a
.	.	.	4g
=93	=93	=93	=93
0r	2F]	2A	4f
.	.	.	4e
.	2D	1d	2f
.	1A	.	1e
.	.	2c	.
=94	=94	=94	=94
0r	1D	4f	2d
.	.	4e	.
.	.	4d	2f
.	.	4c	.
.	[1E	2B	2g
.	.	2A	[2a
=95	=95	=95	=95
1r	1E]	1B	4a]
.	.	.	8g#
.	.	.	8f#
.	.	.	2g#
2r	1r	2.A	2.a
[2A	.	.	.
.	.	4B	8g
.	.	.	8f
=96	=96	=96	=96
2A]	0r	2c	1e
2G	.	2B	.
2A	.	2c	2f
2B	.	2d	[2g
=97	=97	=97	=97
1G	0r	4e	2g]
.	.	4d	.
.	.	1d	2f
2.A	.	.	1e
.	.	2c#	.
4G	.	.	.
=98	=98	=98	=98
4F	2r	4d	1d
4E	.	4e	.
2D	1d	4f	.
.	.	4d	.
1A	.	1e	2r
.	2c	.	[2a
=99	=99	=99	=99
0r	2d	0r	2a]
.	2e	.	2g
.	2c	.	2a
.	2d	.	2b
=100	=100	=100	=100
0r	4e	2r	2.g
.	4d	.	.
.	4c	1e	.
.	4B	.	8a
.	.	.	8b
.	2A	.	2cc
.	2B	2d	[2b
=101	=101	=101	=101
1r	2c	2e	4b]
.	.	.	4a
.	2d	2f	1a
2r	1B-	1d	.
[2d	.	.	2g
=102	=102	=102	=102
2d]	1A	2e	1a
2c	.	1a	.
2d	1r	.	1b
2e	.	2g	.
=103	=103	=103	=103
2c#	2r	2e	1a
2d	1d	2f	.
2.A	.	1e	2r
.	2c	.	[2a
4G	.	.	.
=104	=104	=104	=104
2F	2d	2A	2a]
2E	2e	2B	2g
2F	2c	2A	2a
2D	[2d	2f	2b
=105	=105	=105	=105
0E	4d]	1e	2g
.	4c	.	.
.	4c	.	1a
.	8B	.	.
.	8A	.	.
.	1B	1e	.
.	.	.	2g#
=106	=106	=106	=106
[0A	[0A	[0e	[0a
=107	=107	=107	=107
0A]	0A]	0e]	0a]
*-	*-	*-	*-
!! Et iterum
**kern	**kern	**kern	**kern	**kern
*Ibass	*Itenor	*Itenor	*Icalto	*Icant
!Bassus	!Tenor 2	!Tenor 1	!Altus	!Cantus
*clefF4	*clefGv2	*clefGv2	*clefG2	*clefG2
*k[]	*k[]	*k[]	*k[]	*k[]
*E:phr	*E:phr	*E:phr	*E:phr	*E:phr
*M4/2	*M4/2	*M4/2	*M4/2	*M4/2
=108	=108	=108	=108	=108
1E	0r	1r	0r	0r
2F	.	2r	.	.
2G	.	2B	.	.
=109	=109	=109	=109	=109
2A	0r	2c	0r	1r
4G	.	2d	.	.
4F	.	.	.	.
2E	.	4e	.	2r
.	.	4d	.	.
[2A	.	4c	.	2e
.	.	4B	.	.
=110	=110	=110	=110	=110
2A]	1r	2c	0r	2f
1G	.	2B	.	2g
.	2r	2A	.	1a
2F#	2A	2A	.	.
=111	=111	=111	=111	=111
2G	2B	1G	0r	2r
2C	2c	.	.	2e
2r	2d	1r	.	2f
2E	4c	.	.	2g
.	4B	.	.	.
=112	=112	=112	=112	=112
2F	2A	0r	1r	2a
2G	2.d	.	.	4g
.	.	.	.	4f
2A	.	.	2r	2e
.	4c	.	.	.
2F	2c	.	2A	[2a
=113	=113	=113	=113	=113
2G	2B	0r	2B	2a]
2E	2G	.	2c	1g
[1D	1A	.	2.d	.
.	.	.	.	4f#
.	.	.	8c	4e
.	.	.	8B	.
=114	=114	=114	=114	=114
1D]	1d	1D	2A	2f#
.	.	.	1d	2f#
1r	2B	2.E	.	[1g
.	2e	.	[2c	.
.	.	4F	.	.
=115	=115	=115	=115	=115
1r	1d	2G	2c]	1g]
.	.	2G	2B	.
2r	1r	2A	2c	1r
2G	.	2B	4d	.
.	.	.	4e	.
=116	=116	=116	=116	=116
2F	2r	1c	2f	0r
2E	2G	.	1g	.
1D	2A	1F	.	.
.	2B	.	[2f	.
=117	=117	=117	=117	=117
1C	1c	1G	2f]	2r
.	.	.	2e	2g
1r	1F	1r	4d	2f
.	.	.	4c	.
.	.	.	[2c	2e
=118	=118	=118	=118	=118
1r	1G	1r	2c]	1d
.	.	.	2B	.
2r	1r	2r	[1e	1c
[2c	.	[2A	.	.
=119	=119	=119	=119	=119
2c]	0r	2A]	1e]	2r
2c	.	2A	.	1e
1A	.	2c	2r	.
.	.	2c	[2c	2e
=120	=120	=120	=120	=120
1G	0r	1.d	2c]	2g
.	.	.	2B	2g
1F	.	.	2A	1a
.	.	2c	2A	.
=121	=121	=121	=121	=121
2G	0r	2B	1d	2g
2D	.	1A	.	1f
1E	.	.	2c	.
.	.	2G	[2B	[2e
=122	=122	=122	=122	=122
2.F	0r	1A	2B]	2e]
.	.	.	1A	2d
4F	.	.	.	.
1E	.	1B	.	2e
.	.	.	2G#	[2e
=123	=123	=123	=123	=123
1AA	2r	1c	2A	2e]
.	2A	.	2c	2f
1r	2B	1r	2d	1g
.	[2c	.	[2e	.
=124	=124	=124	=124	=124
0r	2c]	0r	2e]	2e
.	2A	.	2c	2f
.	2B	.	2d	[1g
.	2c	.	[2e	.
=125	=125	=125	=125	=125
0r	4C	0r	4e]	1g]
.	4D	.	4d	.
.	4E	.	2c	.
.	4F	.	.	.
.	2G	.	2B	2d
.	4D	.	4A	[2f
.	4E	.	4G	.
=126	=126	=126	=126	=126
0r	4F	0r	4A	4f]
.	4G	.	4B	4e
.	2A	.	1c	4e
.	.	.	.	8d
.	.	.	.	8c
.	1G	.	.	1d
.	.	.	2B	.
=127	=127	=127	=127	=127
1r	0r	2r	4c	0e
.	.	.	4d	.
.	.	2A	4e	.
.	.	.	4f	.
1E	.	2B	2g	.
.	.	2c	2e	.
=128	=128	=128	=128	=128
2F#	2r	2A	1d	0r
2G	1G	2B	.	.
2E	.	2c	2e	.
2F#	2A	2d	[2d	.
=129	=129	=129	=129	=129
1G	2B	2.B	2d]	0r
.	2G	.	2e	.
.	.	4c	.	.
2.D	2A	4d	[1f	.
.	.	4e	.	.
.	[2B	[2d	.	.
4E	.	.	.	.
=130	=130	=130	=130	=130
1F	4B]	4d]	2f]	1r
.	4A	4c	.	.
.	1A	2A	2d	.
1E	.	1B	[1e	1b
.	2G#	.	.	.
=131	=131	=131	=131	=131
0AA	2.A	0A	0e]	2cc
.	.	.	.	2cc
.	4B	.	.	.
.	1c	.	.	1a
=132	=132	=132	=132	=132
[0E	[0B	[0G#	[0e	[0b
=133	=133	=133	=133	=133
0E]	0B]	0G#]	0e]	0b]
*	*	*	*	*-
!! Qui cum Patre
*Ibass	*Itenor	*Itenor	*Icalto
!Bassus	!Tenor 2	!Tenor 1	!Altus
*clefF4	*clefGv2	*clefGv2	*clefG2
*k[]	*k[]	*k[]	*k[]
*E:phr	*E:phr	*E:phr	*E:phr
*M4/2	*M4/2	*M4/2	*M4/2
=134	=134	=134	=134
1E	0r	1r	0r
1D	.	1A	.
=135	=135	=135	=135
1E	0r	1G	1e
2F#	.	2A	1d
2G	.	2B	.
=136	=136	=136	=136
2E	0r	2G	2e
2D	.	2A	2f
4G	.	2B	2d
4F	.	.	.
4E	.	[2c	[2e
4D	.	.	.
=137	=137	=137	=137
2.C	1r	4c]	2e]
.	.	4B	.
.	.	1A	2c
4D	.	.	.
1E	1e	.	1B
.	.	2G	.
=138	=138	=138	=138
0r	2A	4c	1e
.	.	4B	.
.	1e	4A	.
.	.	4G	.
.	.	4F	2A
.	.	4E	.
.	2d	2F	[2a
=139	=139	=139	=139
0r	2c	1E	2a]
.	2B	.	2g
.	4A	1r	2f
.	4B	.	.
.	4c	.	2e
.	4A	.	.
=140	=140	=140	=140
1r	4B	0r	4d
.	4A	.	4c
.	2.A	.	4c
.	.	.	8B
.	.	.	8A
2r	.	.	1B
.	4G#	.	.
2E	4G#	.	.
.	8A	.	.
.	8B	.	.
=141	=141	=141	=141
2AA	1c	1A	1r
1A	.	.	.
.	1B	1E	1e
2G	.	.	.
=142	=142	=142	=142
1.F	1c	2r	1A
.	.	1A	.
.	2A	.	1c
2E	2c	2G	.
=143	=143	=143	=143
2D	2B	2F	1d
2C	1A	2E	.
1BB	.	1D	1d
.	2G#	.	.
=144	=144	=144	=144
1AA	2A	2E	1c#
.	2E	2A	.
1r	2F	2A	2r
.	2E	2G	2e
=145	=145	=145	=145
0r	2D	4A	2f
.	.	4B	.
.	2C	4c	2e
.	.	4A	.
.	2G	2B	2d
.	2A	[2c	2c
=146	=146	=146	=146
0r	1G	2c]	1d
.	.	2B	.
.	2r	2.c	[1e
.	[2A	.	.
.	.	4B	.
=147	=147	=147	=147
2r	2A]	2A	1e]
1E	2B	2G	.
.	2c	1r	1r
2F	2A	.	.
=148	=148	=148	=148
2G	2d	0r	2r
2E	4c	.	1e
.	4B	.	.
1A	2c	.	.
.	2c	.	2f
=149	=149	=149	=149
2G	2B	1r	2g
2A	2.e	.	2e
1F	.	1A	1a
.	8d	.	.
.	8c	.	.
.	2d	.	.
=150	=150	=150	=150
2E	1e	2B	2g
2A	.	2c	2a
1D	1r	2A	1f
.	.	[2d	.
=151	=151	=151	=151
1r	1.A	2d]	2e
.	.	4c	2e
.	.	4B	.
2r	.	2c	2f
[2E	2B	[2e	2g
=152	=152	=152	=152
2E]	1c	2e]	2e
2F	.	2A	2.a
2G	2B	2d	.
.	.	.	4g
2E	[2e	4c	2g
.	.	4B	.
=153	=153	=153	=153
1A	2e]	2.c	2e
.	2c	.	1f
.	.	4A	.
2G	2d	2B	.
2A	[2c	2c	[2e
=154	=154	=154	=154
0F	4c]	0A	2e]
.	4B	.	.
.	4A	.	4d
.	4G	.	4c
.	1A	.	1d
=155	=155	=155	=155
[0E	[0B	[0G#	[0e
=156	=156	=156	=156
0E]	0B]	0G#]	0e]
*-	*-	*-	*-
!! Confiteor
**kern	**kern	**kern	**kern	**kern
*Ibass	*Itenor	*Itenor	*Icalto	*Icant
!Bassus	!Tenor 2	!Tenor 1	!Altus	!Cantus
*clefF4	*clefGv2	*clefGv2	*clefG2	*clefG2
*k[]	*k[]	*k[]	*k[]	*k[]
*E:phr	*E:phr	*E:phr	*E:phr	*E:phr
*M4/2	*M4/2	*M4/2	*M4/2	*M4/2
=157	=157	=157	=157	=157
0r	0r	0r	1e	0r
.	.	.	2c	.
.	.	.	2d	.
=158	=158	=158	=158	=158
0r	0r	1A	2e	0r
.	.	.	2e	.
.	.	2F	2d	.
.	.	2G	2e	.
=159	=159	=159	=159	=159
0r	0r	2A	1c	0r
.	.	2A	.	.
.	.	2G	2B	.
.	.	2A	[2e	.
=160	=160	=160	=160	=160
0r	0r	1.F	2e]	1a
.	.	.	4d	.
.	.	.	4c	.
.	.	.	2d	2f
.	.	2E	2e	2g
=161	=161	=161	=161	=161
0r	1d	1D	1f	2a
.	.	.	.	2a
.	2B	2E	1e	2g
.	2c	2A	.	2a
=162	=162	=162	=162	=162
0r	2d	4D	0a	1f
.	.	4E	.	.
.	2d	4F	.	.
.	.	4G	.	.
.	2c#	2A	.	2e
.	2d	2D	.	2a
=163	=163	=163	=163	=163
0r	1B	1E	2r	2a
.	.	.	2e	2g#
.	4A	1F	2c	1a
.	4B	.	.	.
.	4c	.	2f	.
.	4d	.	.	.
=164	=164	=164	=164	=164
1r	2B	0G	1e	0g
.	1c	.	.	.
2r	.	.	2d	.
[2G	2B	.	2d	.
=165	=165	=165	=165	=165
2G]	1c	2C	2e	1r
2A	.	2c	2c	.
2G	1r	2d	2B	2r
2E	.	2c	2e	2g
=166	=166	=166	=166	=166
2F	0r	2A	2d	2a
2G	.	2B	1e	2g
1A	.	1c	.	2e
.	.	.	[2c	2f
=167	=167	=167	=167	=167
1G	1r	2.d	2c]	1g
.	.	.	2B	.
.	.	8c	.	.
.	.	8B	.	.
2.F	2r	2A	1c	2.a
.	2c	4F	.	.
4E	.	4G	.	4g
=168	=168	=168	=168	=168
2D	2d	4A	1r	2f
.	.	4B	.	.
2E	2c	1c	.	1e
2F	2A	.	2r	.
4G	2B	2B	[2g	2d
4F	.	.	.	.
=169	=169	=169	=169	=169
4E	2c	1G	4g]	[0e
4D	.	.	4f	.
4C	1c	.	4e	.
4BB	.	.	4d	.
2AA	.	2A	2c	.
2E	2G	2B	2B	.
=170	=170	=170	=170	=170
0AA	1A	4c	4e	0e]
.	.	4B	4d	.
.	.	4A	4c	.
.	.	4G#	4B	.
.	1E	1A	1c	.
=171	=171	=171	=171	=171
[0E	[0E	[0G#	[0B	[0e
=172	=172	=172	=172	=172
0E]	0E]	0G#]	0B]	0e]
!! Et vitam
*Ibass	*Itenor	*Itenor	*Icalto	*Icant
!Bassus	!Tenor 2	!Tenor 1	!Altus	!Cantus
*clefF4	*clefGv2	*clefGv2	*clefG2	*clefG2
*k[]	*k[]	*k[]	*k[]	*k[]
*E:phr	*E:phr	*E:phr	*E:phr	*E:phr
*M4/2	*M4/2	*M4/2	*M4/2	*M4/2
=173	=173	=173	=173	=173
0r	1e	0r	0r	0r
.	1d	.	.	.
=174	=174	=174	=174	=174
1A	1.e	0r	0r	0r
1G#	.	.	.	.
.	2B	.	.	.
=175	=175	=175	=175	=175
2A	2c	0r	0e	0r
2E	4B	.	.	.
.	4A	.	.	.
2G	2B	.	.	.
2A	2c	.	.	.
=176	=176	=176	=176	=176
2F	2A	0r	1d	1a
2F	2A	.	.	.
1E	1B	.	2e	1g#
.	.	.	2B	.
=177	=177	=177	=177	=177
4AA	1.e	0r	0c	2a
4BB	.	.	.	.
4C	.	.	.	2e
4D	.	.	.	.
2E	.	.	.	2g
2F	2A	.	.	2a
=178	=178	=178	=178	=178
1D	1A	2r	1d	2f
.	.	2A	.	2f
1E	2r	1G#	2B	2e
.	[2e	.	2B	2e
=179	=179	=179	=179	=179
0r	4e]	2A	4c	4e
.	4d	.	4d	4f
.	2c	2E	4e	4g
.	.	.	4f	4a
.	2B	2G	4e	2b
.	.	.	4d	.
.	2A	2A	4c	[2cc
.	.	.	4B	.
=180	=180	=180	=180	=180
0r	2c	2F	1A	4cc]
.	.	.	.	4b
.	2d	2F	.	1a
.	1e	2.E	[1B	.
.	.	.	.	[2g
.	.	4F	.	.
=181	=181	=181	=181	=181
1E	1r	1G	1B]	2g]
.	.	.	.	4f
.	.	.	.	4e
1D	2r	1A	1d	2f
.	2A	.	.	2f
=182	=182	=182	=182	=182
1E	1G#	2r	2B	2e
.	.	2e	2B	2b
1AA	1A	1e	4A	2cc
.	.	.	4B	.
.	.	.	4c	[2a
.	.	.	4d	.
=183	=183	=183	=183	=183
2.C	1E	1c	0e	2a]
.	.	.	.	2.g
4D	.	.	.	.
2E	2G	2B	.	.
.	.	.	.	4f
2C	2A	[2A	.	[2e
=184	=184	=184	=184	=184
1D	1.F	2A]	1A	2e]
.	.	2D	.	4d
.	.	.	.	4c
1D	.	2.A	2r	2d
.	2F	.	[2A	2d
.	.	4B	.	.
=185	=185	=185	=185	=185
0AA	[0E	2.c	4A]	[0e
.	.	.	4G#	.
.	.	.	4A	.
.	.	4B	4B	.
.	.	2A	2c	.
.	.	2A	2c	.
=186	=186	=186	=186	=186
[0E	1E_	[0G#	[0B	1e_
.	1E_	.	.	1e_
=187	=187	=187	=187	=187
0E]	0E]	0G#]	0B]	0e]
=188	=188	=188	=188	=188
1E	0r	0r	0r	0r
1G	.	.	.	.
=189	=189	=189	=189	=189
0A	0r	1A	0r	1r
.	.	1c	.	1e
=190	=190	=190	=190	=190
1G	0r	1.d	1r	1g
[1F	.	.	1A	[1a
.	.	2c	.	.
=191	=191	=191	=191	=191
2F]	0r	2A	1c	2a]
2E	.	4c	.	2g
.	.	8B	.	.
.	.	8A	.	.
2.D	.	4B	[1d	2.f
.	.	4A	.	.
.	.	[2A	.	.
4C	.	.	.	4e
=192	=192	=192	=192	=192
1BB	0r	2A]	1d]	2.d
.	.	2G#	.	.
.	.	.	.	4e
2.AA	.	1A	[1c	2f
.	.	.	.	4e
4BB	.	.	.	4d
=193	=193	=193	=193	=193
4C	1E	2.G	2c]	4e
4D	.	.	.	4f
1E	.	.	4B	2.g
.	.	4F	4A	.
.	1G	1E	2B	.
.	.	.	.	4f
2C	.	.	[2c	[2e
=194	=194	=194	=194	=194
1F	1A	1r	2c]	2e]
.	.	.	2A	2d
1E	1G	2r	1B	2e
.	.	[2e	.	2b
=195	=195	=195	=195	=195
1r	1F	4e]	1A	2cc
.	.	8d	.	.
.	.	8c	.	.
.	.	2d	.	1a
2r	1E	1e	1B	.
2E	.	.	.	2g#
=196	=196	=196	=196	=196
2F	1D	[0A	1d	2a
1D	.	.	.	1f
.	1E	.	1r	.
2C#	.	.	.	[2e
=197	=197	=197	=197	=197
0D	0F	1A]	2r	2e]
.	.	.	2A	4d
.	.	.	.	4c
.	.	2r	4B	1d
.	.	.	4A	.
.	.	2A	[2A	.
=198	=198	=198	=198	=198
1r	0E	2c	2A]	2e
.	.	2B	2G#	2b
2.AA	.	2.e	4A	2cc
.	.	.	4B	.
.	.	.	4c	[2a
4BB	.	4d	4d	.
=199	=199	=199	=199	=199
4C	2r	2c	0e	2a]
4D	.	.	.	.
2E	2B	2B	.	2g#
1AA	2c	2A	.	1a
.	[2A	2c	.	.
=200	=200	=200	=200	=200
[0E	2A]	[0B	[0e	[0b
.	4G#	.	.	.
.	4F#	.	.	.
.	1G#	.	.	.
=201	=201	=201	=201	=201
1E_	[0G#	1B_	1e_	1b_
1E_	.	1B_	1e_	1b_
=202	=202	=202	=202	=202
0E]	0G#]	0B]	0e]	0b]
==	==	==	==	==
*-	*-	*-	*-	*-
!!!CDT: 1525/^1526/-1594/2/2
!!!OCY: Italia
!!!AGN: Mass (Paraphrase)
!!!AST: renaissance, vocal
!!!ASW: Gregorian Mass
!!!PWK: Masses, Book Mantuan I
!!!RNB: Cadence finals: A
!!!YOR: Le Opere Complete, v. 18, p. 42
!!!YOO: Rome, Italy: Fratelli Scalera
!!!END: 1992//
!!!EED: John Miller
!!!YEC: Copyright 2000, John Miller
!!!YEN: United States of America
!!!YEM: Rights to all derivative electronic formats reserved.
!!!YEM: Refer to licensing agreement for further details.
!!!YEM: This file must be accompanied by the licensing agreement.
!!!YEM: A copy of the licensing agreement may be found at http://www.music-cog.ohio-state.edu/HumdrumDatabases/Palestrina/license.txt
!!!EMD: converted to Humdrum by Bret Aarden
